X:7273
T:Hughie Shorty's
R:reel
C:Johnny Wilmot
O:20th Century Cape Breton
D:The Lighthouse, Cranford Publications
B:The Lighthouse Collection, ISBN 0-9691181-5-5
N:Contacts ...
N:..... Cranford Publications <http://www.cranfordpub.com>
N:Copyright's
N:....... <wilmot@cranfordpub.com>
Z:This abc transcription is for personal use only,
Z:provided this notice remains attached.
Z:Used by permission of the composer and publisher.
Z:Paul Stewart Cranford <psc@cranfordpub.com>
L:1/8
Q:333
M:C|
K:G
D|G2 (B/c/d) cAFA|GABd g2 (e/f/g)|ecAc dBGB|cAAB AFDF|!
G2 BG cAFA|GABd g2 (e/f/g)|ecAc dBGB|cAGF G2 G:|!
|:d|g2 dg bgag|ec c/c/c efge|dB B/B/B dBGB|[1cAAB AF D2|!
g2 dg bgag|ec c/c/c efge|dB B/B/B dBGB|cAGF G3:|!
[2cAAB AFDB,|C2 EC B,DGB|cdef g2 (e/f/g)|ecAc dBGB|cAGF G2 G|]!


